!!!COM: Robert Schumann
!!!CNT: Deutscher
!!!TXO: Deutsche 
!!!OTL: Auf einer Burg
!!!OPR: Liederkreis
!!!OPS: Opus 39
!!!ONM: No. 7
!!!LYR: Eichendorff
!!!ENC: Brian Bice
!!!YOR: Sa2mtliche Lieder, vol. 1, C.F. Peters
!!!ODT: 1840/
!!NB: Vocal melody and text only encoded.
**kern	**silbe
*clefG2	*
*k[]	*
*M4/4	*
=1	=1
{4.b	{Ein-
8e	-ge-
4.e	-schla-
8e	-fen
=2	=2
4.e	auf
8f#	der
4.g	Lau-
8g}	-er}
=3	=3
{4g	{o-
4g	-ben
4.cc	ist
8cc	der
=4	=4
4.b	al-
8b	-te
4.g	Rit-
8g}	-ter;}
=5	=5
{4.b	{dru2-
8e	-ber
4.e	ge-
8e	-hen
=6	=6
4.e	Re-
8f#	-gen-
4.g	-schau-
8g}	-er,}
=7	=7
{4.e	{und
8e	der
4a	Wald
4a	rauscht
=8	=8
4.g	durch
8g	das
4e	Git-
4e}	-ter.}
=9	=9
{4.g	{Ein-
8c	-ge-
4c	-wach-
4c	-sen
=10	=10
4c	Bart
4c	und
4a	Haa-
4a}	-re,}
=11	=11
{4.a	{und
8d	ver-
4d	-stei-
4d	-nert
=12	=12
4d	Brust
4d	und
4b	Krau-
4b}	-se,}
=13	=13
{4.b	{sitzt
8e	er
4e	vie-
4e	-le
=14	=14
4e	hun-
4e	-dert
4cc	Jah-
4cc}	-re}
=15	=15
{4b	{o-
4b	-ben
4a	in
4a	der
=16	=16
2.g#	stil-
4a	-len
=17	=17
(2.a	Klau-
4g#)	|
=18	=18
2g#}	-se.}
2r	.
=22	=22
{4.b	{Drau-
8e	-ssen
4.e	ist
8e	es
=23	=23
4.e	still
8f#	und
4.g	fried-
8g}	-lich,}
=24	=24
{4g	{al-
4g	-le
4.cc	sind
8cc	ins
=25	=25
4.b	Tal
8b	ge-
4.g	-zo-
8g}	-gen,}
=26	=26
{4.b	{Wal-
8e	-des-
4.e	-vo2-
8e	-gel
=27	=27
4.e	ein-
8f#	-sam
4.g	sin-
8g}	-gen}
=28	=28
{4.e	{in
8e	den
4a	lee-
4a	-ren
=29	=29
4.g	Fen-
8g	-ster-
4e	-bo-
4e}	-gen.}
=30	=30
8r	.
{4c	{Ei-
8c	-ne
4c	Hoch-
4c	-zeit
=31	=31
4c	fa2hrt
4c	da
4a	un-
4a}	-ten}
=32	=32
{4.a	{auf
8d	dem
4d	Rhein
4d	im
=33	=33
4d	Son-
4d	-nen-
4b	-schei-
4b}	-ne,}
=34	=34
{4.b	{Mu-
8e	-si-
4e	-kan-
4e	-ten
=35	=35
4e	spie-
4e	-len
4cc	mun-
4cc}	-ter,}
=36	=36
{4b	{und
4b	die
4a	scho2-
4a	-ne
=37	=37
2.g#	Braut,
4a	die
=38	=38
(2a	wei-
4g#	|
4f#)	|
=39	=39
2g#;}	-net.}
2r	.
*-	*-
